img/icons/arrow.svg

<svg width="21" height="19" viewBox="0 0 21 19" fill="none" xmlns="http://www.w3.org/2000/svg">
<path d="M11.2471 1.14265C11.7179 0.671851 12.4813 0.671851 12.9521 1.14265L20.624 8.81453C21.0948 9.28533 21.0948 10.0488 20.624 10.5196L12.9521 18.1915C12.4813 18.6623 11.7179 18.6623 11.2471 18.1915C10.7765 17.7207 10.7763 16.9571 11.2471 16.4864L16.8623 10.8721L1.68848 10.8721C1.02266 10.8721 0.483398 10.3329 0.483398 9.66707C0.483398 9.00125 1.02266 8.46199 1.68848 8.46199L16.8623 8.46199L11.2471 2.84773C10.7763 2.377 10.7765 1.61347 11.2471 1.14265Z" fill="white"/>
</svg>

<svg width="21" height="19" fill="none" xmlns="http://www.w3.org/2000/svg"><path d="M11.247 1.143a1.205 1.205 0 011.705 0l7.672 7.672c.47.47.47 1.234 0 1.705l-7.672 7.672a1.206 1.206 0 01-1.705-1.706l5.615-5.614H1.688a1.205 1.205 0 110-2.41h15.174l-5.615-5.614a1.206 1.206 0 010-1.705z" fill="#fff"/></svg>
